assets/images/arrow_left.svg

<svg width="24" height="24" viewBox="0 0 24 24" fill="none" xmlns="http://www.w3.org/2000/svg">
<path d="M7.20011 12C7.20011 11.3 7.47011 10.6 8.00011 10.07L14.5201 3.55002C14.8101 3.26002 15.2901 3.26002 15.5801 3.55002C15.8701 3.84002 15.8701 4.32002 15.5801 4.61002L9.06011 11.13C8.58011 11.61 8.58011 12.39 9.06011 12.87L15.5801 19.39C15.8701 19.68 15.8701 20.16 15.5801 20.45C15.2901 20.74 14.8101 20.74 14.5201 20.45L8.00011 13.93C7.47011 13.4 7.20011 12.7 7.20011 12Z" fill="#292D32"/>
</svg>

<svg xmlns="http://www.w3.org/2000/svg" width="24" height="24" fill="none" xmlns:v="https://vecta.io/nano"><path d="M7.2 12c0-.7.27-1.4.8-1.93l6.52-6.52c.29-.29.77-.29 1.06 0s.29.77 0 1.06l-6.52 6.52a1.23 1.23 0 0 0 0 1.74l6.52 6.52c.29.29.29.77 0 1.06s-.77.29-1.06 0L8 13.93c-.53-.53-.8-1.23-.8-1.93z" fill="#292d32"/></svg>
